!!!!SEGMENT: pl-wtm--a-29-280-75_joteyko-tadeusz--limba-op-2-no-3-samotna-limba-szumi-na-zboczu.krn
!!!cenid: 19xx:119
!!!COM: Joteyko, Tadeusz
!!!COM-rismID: pe50046072
!!!CDT: 1872-1932
!!!CNT: Polish
!!!OTL: Limba Op. 2 No. 3/Samotna limba szumi na zboczu
!!!PDT:
!!!AGN: Secular; Song
!!!YEC: Copyright 2022 Narodowy Instytut Fryderyka Chopina (https://polishscores.org)
!!!YEM: License CC-BY-4.0 (https://creativecommons.org/licenses/by/4.0)
!!!SMS-siglum: PL-Wtm
!!!SMS-shelfmark: A.29.280/75
!!!SMS-variant:
!!!SMS-altvar:
!!!SMS-shelfwork: W
!!!NIFC-rismSourceID: 1001208583
!!!NIFC-rismChildID: 1001208583
!!!NIFC-islandoraID: pl-wtm:34317
!!!URL-pdf-islandora: https://repozytorium.nifc.pl/islandora/object/pl-wtm%3A34317/datastream/PDF/view
!!!URL-scan: https://polish.musicsources.pl/pl/lokalizacje/galeria/druki-muzyczne/20549/2 @EN{Scan on Polish Music Sources Website} @PL{Skany w portalu Dziedzictwo Muzyki Polskiej w otwartym dostępie}
!!!IIIF:
!!!ONB-nifc:
!!!AIN: 1 canto 1 piano
!!!key: f
**kern	**kern	**dynam	**kern	**text	**dynam
*part2	*part2	*part2	*part1	*part1	*part1
*staff3	*staff2	*staff2/3	*staff1	*staff1	*
*group2	*group2	*	*group1	*	*
*IGacmp	*IGacmp	*	*IGsolo	*	*
*ICklav	*ICklav	*	*ICvox	*	*
*Ipiano	*Ipiano	*	*Icanto	*	*
*I"Fortepian.	*I"Fortepian.	*	*I"Śpiew.	*	*
*I'	*I'	*	*I'	*	*
*clefF4	*clefG2	*	*clefG2	*	*
*k[b-e-a-d-]	*k[b-e-a-d-]	*	*k[b-e-a-d-]	*	*
*f:	*f:	*	*f:	*	*
*M3/4	*M3/4	*	*M3/4	*	*
=1	=1	=1	=1	=1	=1
*	*^	*	*	*	*
!!LO:TX:a:B:t=Andante.
!	!LO:TX:a:B:t=Andante.	!	!	!	!	!
(>2.C 2.FF/	8r	4rc	p	2.r	.	.
.	(8A-/L	.	.	.	.	.
.	8B-/	4r	.	.	.	.
.	8c/	.	.	.	.	.
.	8d-/	[4d-\	.	.	.	.
.	8a-/J	.	.	.	.	.
=2	=2	=2	=2	=2	=2	=2
*^	*	*	*	*	*	*
(4C-X/	[2FF\	8g/L	2d-\]	.	2.r	.	.
.	.	8f/	.	.	.	.	.
4BB-/	.	8en/	.	.	.	.	.
.	.	8g/J	.	.	.	.	.
8AA-/))	8FF\]	8c/)	8c\	.	.	.	.
8r	8ryy	8r	8ryy	.	.	.	.
*v	*v	*	*	*	*	*	*
=3	=3	=3	=3	=3	=3	=3
4r	(8.cc^/L	4r	mf	2.r	.	.
.	16g/Jk	.	.	.	.	.
(4F (4D-\	8b-/L	4f\	.	.	.	.
.	8a-/	.	.	.	.	.
4G 4Dn\	8g/	4Bn\	.	.	.	.
.	8f/J	.	.	.	.	.
*	*v	*v	*	*	*	*
=4	=4	=4	=4	=4	=4
8GL 8C\))	8en 8c/)	>	2.r	.	.
(<8BBn\	8r	.	.	.	.
8D-X\	4r	.	.	.	.
8C\	.	.	.	.	.
8BB-X\	4r	]]	.	.	.
8GG\J	.	.	.	.	.
=5	=5	=5	=5	=5	=5
*	*^	*	*	*	*
!	!	!	!	!LO:TX:a:i:t=doloroso	!	!
2.C 2.FF/)	8r	4rc	.	4cc\	Sa-	.
.	(8A-/L	.	.	.	.	.
.	8B-/	4r	.	4cc\	-mot-	.
.	8c/	.	.	.	.	.
.	8d-/	[4d-\	<	4ff\	-na	.
.	8a-/J	.	.	.	.	.
!!LO:LB:g=original
=6	=6	=6	=6	=6	=6	=6
*^	*	*	*	*	*	*
(4BB-/	2.FF\	8g/L	(4d-\]	.	8.een\	lim-	.
.	.	8f/	.	[	.	.	.
.	.	.	.	.	16dd-\	-ba	.
4C/	.	8en/	4A-\	.	4cc\	szu-	.
.	.	8f/	.	.	.	.	.
4D-/)	.	8g/	4B-\)	.	4b-\	-mi	.
.	.	8e/J)	.	.	.	.	.
*	*	*v	*v	*	*	*	*
=7	=7	=7	=7	=7	=7	=7
2C/	2FF\	(>8a-L 8c/	.	8a-/L	na	.
.	.	8b- 8d-/	.	8b-/J	.	.
.	.	8cc 8e-X/	.	4cc\	zbo-	.
.	.	8f/	.	.	.	.
4D-/	4ryy	8b- 8d-/	.	4b-\	-czu	.
.	.	8f/J	.	.	.	.
=8	=8	=8	=8	=8	=8	=8
*	*	*^	*	*	*	*
(8BB-/L	2.FF\	8g/L	(8d-\L	>	8g/L	stro-	.
8C/	.	8f/J	8A-\	.	8a-/J	.	.
8D-/	.	2en/)	8B-\	.	2en/	-mem,	.
8C/	.	.	8A-\	.	.	.	.
8BB-/	.	.	8G\	.	.	.	.
8D-/J)	.	.	8B-\J)	]	.	.	.
*	*	*v	*v	*	*	*	*
=9	=9	=9	=9	=9	=9	=9
2C/	2FF\	(>8fL 8A-/	.	8f/L	u	.
.	.	8g 8B-/	.	8g/J	.	.
.	.	8a- 8c/	<	4a-/	stop	.
.	.	8f/	.	.	.	.
4r	4ryy	8b- 8d-/	.	4b-\	jej	.
.	.	8f/J	.	.	.	.
*v	*v	*	*	*	*	*
=10	=10	=10	=10	=10	=10
*	*^	*	*	*	*
2.BB- 2.BBB-/	8.dd-/L	(4f\	[	8.dd-\	czar-	.
.	16b-/Jk	.	.	16b-\	-na	.
.	4a-/	8f\L	.	4a-/	prze-	.
.	.	8d-\	.	.	.	.
.	4g/)	8en\	.	4g/	-paść	.
.	.	8d-\J)	.	.	.	.
!!LO:LB:g=original
=11	=11	=11	=11	=11	=11	=11
(4BBn (4BBBn/	(8f/L	(8dn\L	.	8f/L	za-	.
.	8g/	8e-\J	.	8g\J	.	.
(2GG (2GGG/))	8a-/	4c\	.	4a-/	-sła-	.
.	8d/	.	.	.	.	.
.	8g/	4Bn\)	.	4g/	-na	.
.	8d/J	.	.	.	.	.
=12	=12	=12	=12	=12	=12	=12
2C 2CC/))	8f/L	4dn\	>	8f/L	zło-	.
.	8g/	.	.	8g/J	.	>
.	8cc/)	8e-X\L	]<	2e-X/	-mem,	.
.	8ddn/	8a- 8f\	.	.	.	.
4r	8ee-/	8b- 8g\	.	.	.	.
.	8ff/J	8ccJ 8a-\	[[	.	.	]]
*	*v	*v	*	*	*	*
=13	=13	=13	=13	=13	=13
4BB- 4BBB-/	(8ggL 8dd-X 8g\	mf	2.r	.	.
.	8ffJ 8dd- 8g\)	.	.	.	.
4d- 4B- 4G 4E-\	4ee- 4g\	.	.	.	.
4d- 4B- 4G 4E-\	4dd- 4g\	.	.	.	.
=14	=14	=14	=14	=14	=14
4AA- 4AAA-/	4ff 4cc 4a-\	.	4r	.	.
4c 4A- 4E-\	2ee- 2cc 2a-\	.	8r	.	.
.	.	.	8cc\	w ko-	.
4c 4A- 4E-\	.	.	8cc\	-ło	.
.	.	.	8cc\	się	.
=15	=15	=15	=15	=15	=15
*	*^	*	*	*	*
4EE- 4EEE-/	8.ee-L 8.cc/	4e-\	.	8.ee-\	pię-	.
.	16dd-Jk 16b-/	.	.	16dd-\	-trzy	.
4d- 4B- 4E-\	4ff 4dd-/	4f\	.	4ff\	gra-	.
4d- 4B- 4E-\	4dd- 4b-/	4g\	.	4dd-\	-nit	.
*	*v	*v	*	*	*	*
!!LO:PB:g=original
=16	=16	=16	=16	=16	=16
4AA- 4AAA-/	2.cc 2.a-\	.	4cc\	zim-	.
.	.	>	.	.	.
4c 4A- 4E-\	.	.	8a-/	-ny	.
.	.	.	8b-\	po-	.
4c 4A- 4E-\	.	.	8cc\	-nu-	.
.	.	]]	8a-/	-ry,	.
=17	=17	=17	=17	=17	=17
*	*^	*	*	*	*
4BB- 4BBB-/	4r	4ryy	p	8r	.	.
.	.	.	.	8b-\	po-	.
4B- 4F 4D-\	(8a-/L	4r	.	8a-/	-nad	.
.	8g/	.	.	8g/	nią	.
4B- 4F 4BB-\	8dd-/	4f\	.	8dd-\	wi-	.
.	8b-/J	.	.	8b-\	-cher	.
*	*v	*v	*	*	*	*
=18	=18	=18	=18	=18	=18
4C 4CC/	2a- 2f/)	.	4a-/	cie-	.
4c 4A- 4F 4C\	.	.	8g/	-mne	.
.	.	.	8f/	prze-	.
4c 4A- 4F 4C\	4r	.	8en/	-ga-	.
.	.	.	8f/	-nia	.
=19	=19	=19	=19	=19	=19
4GG 4GGG/	2a- 2f 2Bn^>/	.	(2a-^>/	chmu-	.
(4Dn\	.	.	.	.	.
4G\)	4g 4f 4B/	.	4g/)	.	.
=20	=20	=20	=20	=20	=20
(8C/L	2g 2en 2B-X/	>	2g/	-ry	.
8BBn/	.	.	.	.	.
8D-X/	.	.	.	.	.
8C/	.	.	.	.	.
8BB-X/	4r	]]	4r	.	.
8GG/J	.	.	.	.	.
!!LO:LB:g=original
=21	=21	=21	=21	=21	=21
4FF/)	(4cc 4a- 4f/	pp	4cc\	W krąg	.
(4en\	4cc 4a- 4f/	.	4cc\	o-	.
4e-X\	4ff 4a- 4f\	.	4ff\	-to-	.
=22	=22	=22	=22	=22	=22
*	*^	*	*	*	*
8.d-\L	8.een/L	4a- 4f\	.	8.een\	-czo-	.
16Bn\Jk	16dd-/Jk	.	.	16dd-\	-na	.
4c\	4cc/	4a- 4f\	.	4cc\	ta-	.
4d-\)	4b-/)	4f\	.	4b-\	-ką	.
*	*v	*v	*	*	*	*
=23	=23	=23	=23	=23	=23
(8c\L	(>8a-L 8f/	.	8a-/L	pust-	.
8d-J 8B-X\	8b-J 8f/	.	8b-/J	.	.
4c 4A-\	4cc 4f/	.	4cc\	-ką	.
4d- 4G\	4b- 4f/	.	4b-\	o-	.
=24	=24	=24	=24	=24	=24
*^	*^	*	*	*	*
4c/)	4G\	8b-/L	4en\	.	8g/L	-krut-	.
.	.	8a-/J	.	.	8a-/J	.	.
(8.d-^/L	4.C\	4.g 4.e/)	2ryy	.	2en/	-ną	.
16B-/K	.	.	.	.	.	.	.
8A-/	.	.	.	.	.	.	.
8G/J)	8BB-\	8e 8c/	.	.	.	.	.
*v	*v	*	*	*	*	*	*
*	*v	*v	*	*	*	*
=25	=25	=25	=25	=25	=25
8FL 8AA-/	8fL 8c/	<	8f/L	sa-	.
8EnJ 8GG/	8gJ 8c/	.	8g/J	.	<
4F 4FF/	4a- 4c/	.	4a-/	-mot-	.
4E-X 4EE-X/	4an 4f 4c/	.	4an/	-na	.
!!LO:LB:g=original
=26	=26	=26	=26	=26	=26
8D-L 8DD-/	8b-L 8f 8d-/	.	8b-\	lim-	.
8CJ 8CC/	8ccJ 8an 8f/	.	8cc\	-ba	.
4BB- 4BBB-/	4dd- 4b- 4f/	.	4dd-\	szu-	.
.	.	.	.	.	[
4GG 4GGG/	4ff 4dd- 4b- 4f\	.	4ff\	-mi	.
.	.	[	.	.	.
=27	=27	=27	=27	=27	=27
*	*^	*	*	*	*
!	!	!	!	!	!	!LO:DY:a:rj
4C 4CC/	8.eenL 8.en/	4dd- 4b-\	ff	8.een\L	bez-	ff
!	!	!	!	!LO:TX:b:i:t=con duolo	!	!
.	16ffJk 16f/	.	.	16ff\Jk	.	.
4en 4d- 4B- 4G;\	4gg 4dd- 4b- 4g;\	2ryy	.	4gg;\	-den-	.
4e 4d- 4B- 4G\	4ee 4dd- 4b- 4g\	.	.	4ee\	-nie,	.
*	*v	*v	*	*	*	*
=28	=28	=28	=28	=28	=28
4BB- 4BBB-/	(8dd-/L	.	8dd-\L	bez-	.
.	8b-/J	.	8b-\J	.	.
4f 4d- 4B- 4G\	4g/)	.	4g/	-den-	.
4BBn 4BBBn/	4a- 4f 4d-/	.	4a-/	-nie	.
=29	=29	=29	=29	=29	=29
*	*^	*	*	*	*
2.C 2.CC;</	(2a-;/	2.en 2.B-\	.	(2a-;/	smut-	.
.	.	.	>	.	.	.
.	.	.	.	.	.	>
.	4g/)	.	.	4g/)	.	.
*	*v	*v	*	*	*	*
=30	=30	=30	=30	=30	=30
4FF 4FFF/	2f 2c 2A-/	.	2.f/	-no!	]]
.	.	]	.	.	.
2F\	.	.	.	.	.
.	(4fff\	mf	.	.	.
!!LO:LB:g=original
=31	=31	=31	=31	=31	=31
4FF 4FFF/	8eeen\L	.	2.r	.	.
.	8ddd-\	.	.	.	.
4en 4d- 4B- 4F\	8ccc\	.	.	.	.
.	8bb-\	.	.	.	.
4e 4d- 4B- 4F\	8aa-\	.	.	.	.
.	8gg\J	.	.	.	.
=32	=32	=32	=32	=32	=32
4FF 4FFF/	8.ff\L	.	2.r	.	.
.	16dd-\Jk	.	.	.	.
4f 4c 4A- 4F\	4cc\	.	.	.	.
4f 4c 4A- 4F\	4cc\)	.	.	.	.
=33	=33	=33	=33	=33	=33
4D- 4DD-/	(8bn/L	>	2.r	.	.
.	8a-/	.	.	.	.
4Bn 4A- 4F 4D-\	8g/	.	.	.	.
.	8f/	.	.	.	.
4B 4A- 4F 4D-\	8e-X/	.	.	.	.
.	8d-/J)	]	.	.	.
=34	=34	=34	=34	=34	=34
4FF 4FFF/	2.c 2.A- 2.F/	p	2.r	.	.
4C/	.	.	.	.	.
(8C/L	.	.	.	.	.
8CC/J)	.	.	.	.	.
=35	=35	=35	=35	=35	=35
4FF/	2.c 2.A- 2.F/	>	2.r	.	.
4C/	.	.	.	.	.
(8C/L	.	.	.	.	.
8CC/J)	.	.	.	.	.
=36	=36	=36	=36	=36	=36
2.FF/	2.c 2.A- 2.F/	]]	2.r	.	.
=37	=37	=37	=37	=37	=37
2.f 2.c 2.F;<\	2.ff 2.cc 2.a-;\	ppp	2.r;	.	.
==	==	==	==	==	==
*-	*-	*-	*-	*-	*-
!!!system-decoration: g1{(g2)}
!!!RDF**kern: i = editorial accidental
!!!RDF**kern: > = above
!!!RDF**kern: < = below
!!!RDF**kern: N = linked
!!!RDF**dynam: > = "dim.", fontstyle= "italic"
!!!ENC: Andrzej Gręziak
!!!EED: Katarzyna Serwa
!!!END: 2023-10-03
!!!EEV: 2023-10-20
